X: 1818
T: Söyle Ey Nâlem
C: Ahmed Irsoy
O: Turkey
F: http://compmusic.upf.edu/node/140
N: buselik--agirsemai--agir_aksaksemai--soyle_ey_nalem--ahmed_irsoy
N: makam= buselik
N: form= agirsemai
N: usul= agir_aksaksemai = 10/4
M: 10/4
L: 1/16
K: C    
Q: 1/4=60
%%MIDI tuningsystem comma53
c8 c4 c4 c2B2 BAAG A2B2 c8 BcB2  | \
w:   | 
c8 B2c2 d2e6 e3d c2d2 e8 ddd2  | 
w:   | 
e8 d2e2 e4 e2a2 e2e4d2 d2ed dccB c4  | \
w:   | 
c2Bc d2cd e2de ^f2g2 g2fe f2g2 f2g2 a2gf e4 z4  | 
w:   | 
f8 f4 f4 f2e2 eddc d2e2 e8 z4  | e8 e4 e2f2 e2d2 d2g2 f2e2 eddc d4 z4  | 
w:   |   | 
d8 d4 d6c2 d2f2 e2d2 dccB c4 z4  | \
w:   | 
c8 c2B2 d2c4B2 B3A G2AB A2B4^c2 d2(3cBc  | 
w:   | 
d8 d2f2 e2d2 c2B2 B2cB BAA^G A8 e4  | \
w:   | 
e3d d3c c4 f3e e3d d6a2 a3g g3f f3e  | 
w:   | 
e3d d3c B2c2 B2e2 d2c2 BAG2 BcBc d2cB A4 A2BA  | 
w:   | 
^G2A6 A4 g6^f2 e4 f4 g8 z4  | g8 g4 g3/2f/ga g2f2 feed e2f2 g8 fgf2  | 
w:   |   | 
g8 ^f2g2 a6g2 g2fe f2g2 gffe edd^c f2ed  | 
w:   | 
d8 d4 c'4 c'2b2 b4 b2a2 a2ba agg^f g4  | \
w:   | 
^f2g2 a2d'2 c'2b2 a2g4(3fef z2g2 f2ga a2gf e4 z4  | 
w:   | 
f8 f4 f4 f2e2 eddc d2e2 e8 z4  | e8 e4 e2f2 e2d2 d2g2 f2e2 eddc d4 z4  | 
w:   |   | 
d8 d4 d6c2 d2f2 e2d2 dccB c4 z4  | \
w:   | 
c8 c2B2 d2c4B2 B3A G2AB A2B4^c2 d2(3cBc  | 
w:   | 
d8 d2f2 e2d2 c2B2 B2cB BAA^G A8 e4  | \
w:   | 
e3d d3c c4 f3e e3d d6a2 a3g g3f f3e  | 
w:   | 
e3d d3c B2c2 B2e2 d2c2 BAG2 BcBc d2cB A4 A2BA  | 
w:   | 
^G2A6 A4 g6^f2 e4 f4 g8 z4  | g8 g4 g3/2f/ga g2f2 feed e2f2 g8 fgf2  | 
w:   |   | 
g8 ^f2g2 a6g2 g2fe f2g2 gffe edd^c f2ed  | 
w:   | 
d8 d4 c'4 c'2b2 b4 b2a2 a2ba agg^f g4  | \
w:   | 
^f2g2 a2d'2 c'2b2 a2g4(3fef z2g2 f2ga a2gf e4 z4  | 
w:   | 
|


